T: Little Burnt Potato, The
M: 6/8
L: 1/8
K: Gmaj
dcd edc | dBG D2 G | B2 d =c2 B | A E2- EFG |A2 B A2 G | FDF d3 |1 dcd ed=c | B3- :|2 dcd edF | G3- Gd=c ||B2 D BDD | B3- B2 A | GAB dcB | =c3- cAB |=ced cBA | GFE D2 ^c |1 d^cd ed=c | B3- Bd=c :|2 d^cd ed=F | G3 ||
